X: 31207
T: Paddy Fahey's
R: hornpipe
M: 4/4
K: Gmajor
"G"B,2 DB, "Am"C2 EC|"G"B,DGB "D"ADFA|"C"Ggfe "Am"^decA|"D"Fe d/e/d ed^cd|
"G"BGDB, "Am"C2 EC|"G"B,DGB "D"ADFA|"C"Ggfe "D7"d/g/d cF|AGGF "G"G4|
"G"E,G,B,D "Am"C2 EC|"G"B,DGB "D"ADFA|"C"Ggfe "Am7"^decA|"D"Fe d/e/d ed^cd|
"G"BGDB, "Am"C2 EC|"G"B,DGB "D"ADFA|"Em7"Ggfe "D7"d/g/d cF|AGGF "G"G2 G/B/d||
"G"gfGB dgfe|"D"^cdfd edcd|"G"BGDB, "Am"CEAC|"G"B,DGB "D"ADFA|
"G"Ggfe "Am"^decA|"D"Fd d/e/d ed^cd|"G"BGDB, "Am7"C2 EC|"Bm7"B,DFA "G"G2 G/B/d|
"G"gfGB dgfe|"D"^cdfd edcd|"G"BGDB, "Am"CEAC|"G"B,DGB "D"ADFA|
"C"Ggfe "Am"^decA|"D"Fd d/e/d ed^cd|"G"BGDB, "Am"C2 EC|"G"B,D"D"FA "G"G4||

